X: 19002
T: Insomnie
R: barndance
M: 4/4
K: Gminor
|:d3d BdBd|c2A2FABA|G2B2BABc|d2d2edcB|
d3d BdBd|c2A2FABA|G2B2BABc|G8:|
|:FABA FAdA|EABA EAdA|DABA DABA|DAAD AADA|
FABA FAdA|EABA EAdA|DABA DABA|DAAD AADA:|

